packages/icons/src/components/Logo/assets/dark/fedora.svg

<svg width="20" height="20" viewBox="0 0 20 20" fill="none" xmlns="http://www.w3.org/2000/svg">
<path d="M10.0068 0.25C4.54036 0.25 0.111773 4.6115 0.101908 9.99605H0.100159V17.5401H0.101908C0.104531 18.7615 1.11015 19.75 2.35122 19.75H10.0048C15.4722 19.7466 19.8998 15.3855 19.8998 10.0039C19.8998 4.6194 15.4693 0.257892 9.99496 0.257892L10.0068 0.25ZM12.0184 4.26326C13.6807 4.26326 15.2503 5.51616 15.2503 7.24557C15.2503 7.40589 15.2513 7.5664 15.2246 7.74822C15.1786 8.20814 14.7517 8.53863 14.2869 8.47382C13.8221 8.40822 13.5067 7.97364 13.5927 7.51894C13.6006 7.46705 13.6034 7.38556 13.6034 7.24547C13.6034 6.26505 12.7888 5.88701 12.019 5.88701C11.249 5.88701 10.5549 6.52451 10.554 7.24547C10.5673 8.0796 10.554 8.90681 10.554 9.74044L11.9835 9.72991C13.0992 9.70716 13.1121 11.3617 11.9963 11.3538L10.555 11.3643C10.5515 12.0352 10.5602 11.9139 10.5568 12.2518C10.5568 12.2518 10.5688 13.0724 10.544 13.6941C10.3714 15.5212 8.79187 16.9813 6.89376 16.9813C4.88121 16.9813 3.22382 15.3624 3.22382 13.3764C3.28424 11.3343 4.93843 9.72722 7.02201 9.74597L8.18416 9.73735V11.3582L7.02201 11.3688H7.01588C5.87149 11.4021 4.88988 12.1679 4.87113 13.3754C4.87113 14.4754 5.77362 15.3564 6.89355 15.3564C8.01229 15.3564 8.90807 14.5549 8.90807 13.3774L8.90632 7.2381C8.90689 7.12415 8.91069 7.03359 8.9234 6.9079C9.11222 5.40638 10.4762 4.262 12.0202 4.262L12.0184 4.26326Z" fill="white"/>
</svg>

<svg xmlns="http://www.w3.org/2000/svg" width="20" height="20" fill="none" viewBox="0 0 20 20">
    <path fill="#fff" d="M10.007.25C4.54.25.112 4.612.102 9.996H.1v7.544h.002c.003 1.222 1.008 2.21 2.25 2.21h7.653c5.467-.003 9.895-4.364 9.895-9.746 0-5.385-4.43-9.746-9.905-9.746zm2.011 4.013c1.663 0 3.232 1.253 3.232 2.983 0 .16.001.32-.025.502a.824.824 0 0 1-.938.726.815.815 0 0 1-.694-.955 2 2 0 0 0 .01-.274c0-.98-.814-1.358-1.584-1.358s-1.464.638-1.465 1.358c.013.835 0 1.662 0 2.495l1.43-.01c1.115-.023 1.128 1.632.012 1.624l-1.441.01c-.003.671.005.55.002.888 0 0 .012.82-.013 1.442-.173 1.827-1.752 3.287-3.65 3.287-2.013 0-3.67-1.619-3.67-3.605.06-2.042 1.714-3.649 3.798-3.63l1.162-.009v1.621l-1.162.01h-.006c-1.145.034-2.126.8-2.145 2.007 0 1.1.903 1.981 2.023 1.981 1.118 0 2.014-.801 2.014-1.979l-.002-6.139c0-.114.005-.204.017-.33.19-1.502 1.553-2.646 3.097-2.646z"/>
</svg>
